X: 15
T: John Ryan's
Z: NfldWhistler
S: https://thesession.org/tunes/441#setting46876
R: polka
M: 2/4
L: 1/8
K: Dmaj
|:dd B/c/d/B/|AF AF|dd B/c/d/B/|AF E2|
dd B/c/d/B/|AF Ad|fd ec|d2 d2:|
|:fd de/f/|gf ed|fd de/f/|ge a2|
fd de/f/|gf ed|fd ec|d2 d2:|

